svgs/sharp-light/gopuram.svg

<svg xmlns="http://www.w3.org/2000/svg" viewBox="0 0 512 512"><!--! Font Awesome Pro 6.6.0 by @fontawesome - https://fontawesome.com License - https://fontawesome.com/license (Commercial License) Copyright 2024 Fonticons, Inc. --><path d="M128 0l0 16 0 16 64 0 0-16 0-16 32 0 0 16 0 16 64 0 0-16 0-16 32 0 0 16 0 16 64 0 0-16 0-16 32 0 0 16 0 16 0 32 0 16 0 16 0 32 32 0 0 32 0 64 32 0 0 32 0 96 32 0 0 32 0 96 0 32-32 0-160 0-32 0-64 0-32 0L32 512 0 512l0-32 0-96 0-32 32 0 0-96 0-32 32 0 0-64 0-32 32 0 0-32 0-16 0-16 0-32 0-16L96 0l32 0zm96 480l64 0c0-17.7-14.3-32-32-32s-32 14.3-32 32zm96 0l64 0 0-96-32 0-48 0-32 0-32 0-32 0-48 0-32 0 0 96 64 0c0-35.3 28.7-64 64-64s64 28.7 64 64zM128 80l0 16 0 32 256 0 0-32 0-16 0-16L128 64l0 16zm288 80l-32 0-32 0 0 64 64 0 0-64zm-64 96l-32 0-48 0-32 0-48 0-32 0 0 96 48 0 0-16c0-26.5 21.5-48 48-48s48 21.5 48 48l0 16 48 0 0-96zm-32-32l0-64-128 0 0 64 48 0 0-16c0-8.8 7.2-16 16-16s16 7.2 16 16l0 16 48 0zM272 352l0-16c0-8.8-7.2-16-16-16s-16 7.2-16 16l0 16 32 0zM128 160l-32 0 0 64 64 0 0-64-32 0zm288 96l-32 0 0 96 64 0 0-96-32 0zm64 224l0-96-32 0-32 0 0 96 64 0zM128 256l-32 0-32 0 0 96 64 0 0-96zM96 480l0-96-32 0-32 0 0 96 64 0z"/></svg>

<svg xmlns="http://www.w3.org/2000/svg" viewBox="0 0 512 512"><!--! Font Awesome Pro 6.4.2 by @fontawesome - https://fontawesome.com License - https://fontawesome.com/license (Commercial License) Copyright 2023 Fonticons, Inc. --><path d="M128 0V16 32h64V16 0h32V16 32h64V16 0h32V16 32h64V16 0h32V16 32 64 80 96v32h32v32 64h32v32 96h32v32 96 32H480 320 288 224 192 32 0V480 384 352H32V256 224H64V160 128H96V96 80 64 32 16 0h32zm96 480h64c0-17.7-14.3-32-32-32s-32 14.3-32 32zm96 0h64V384H352 304 272 240 208 160 128v96h64c0-35.3 28.7-64 64-64s64 28.7 64 64zM128 80V96v32H384V96 80 64H128V80zm288 80H384 352v64h64V160zm-64 96H320 272 240 192 160v96h48V336c0-26.5 21.5-48 48-48s48 21.5 48 48v16h48V256zm-32-32V160H192v64h48V208c0-8.8 7.2-16 16-16s16 7.2 16 16v16h48zM272 352V336c0-8.8-7.2-16-16-16s-16 7.2-16 16v16h32zM128 160H96v64h64V160H128zm288 96H384v96h64V256H416zm64 224V384H448 416v96h64zM128 256H96 64v96h64V256zM96 480V384H64 32v96H96z"/></svg>
